X:1
T:Patriot Game
M:3/4
L:1/4
K:C
 C| E G c| A3| G2 E| D G G| C3-| C2 c/2c/2| d c d| e3| c2 G/2G/2| A G A|\
 c3-| c2 c/2c/2| d c d| e3| c2 G| A G A| c3-| c2 C| E G c| A3| G2 E|\
 D G G| C2||
